X:200
T:Chanterai por mon corage
T:Chanson de croisade
C:Guiot de Dijon
M:6/8
L:1/8
Q:1/4=104
K:G 
V:1
dde gg2 | fga g/2f/2e2 | d/2c/2de gg2 | fga g/2f/2e2 | 
def ed2 | Bcd c/2B/2A2 | ddc dde | gg2 fe2 | 
efg ed2 | Bcd c/2B/2A2 | dc2 dde | gg2 fe2 | 
efg ed2 | Bcd c/2B/2A2 | dc2 dde | gfe ed2 | 
de2 gg2 | fga g/2f/2e2 | dde gg2 | fga g/2f/2e2 | 
ef/2g/2f eed- | dBc dc/2B/2A- | Aed cdd | egf eed- | d |]
T:Autre
de2 gg2 | gg2 f g/f/!breath!e | 
de2 gg2 | gg2 (f/e/ !breath!f2) :|
gf2 ed2 | [M:9/8] dd2 edc Bz2 |
[M:6/8] de2 gf2 | ed2 ((3e/d/c/!breath!B2) |
de2 gg2 | gg2 f g/f/!breath!e |
de2 gg2 | gg2 (f/e/!breath!f2) |
gf2 ed2 | [M:9/8] dd2 e/=f/ed cz2 |
[M:6/8] de2 ff2 | ff2 ((3g/f/e/ !breath!d2) |]





